X:2076
T:Let Christians all
T:Lhig Chaarjyn Chreest
T:(O Cre ta Dooinney, in JFSS v7 n29)
C:Traditional
O:Isle of Man
Z:Clague collection
B:Kiaull Vannin #76
N:Given in Journal of Folk Song Society (vol.7,29) as "O cre ta Dooinney" 
M:4/4 
L:1/4
K:D 
D2{E}} FG|A2 B2|AG FE|F3 z/|D2{E} FG|A2 B2|AG FE|F3 z/|
A2 FE|D3/2E/ F2|GF ED|E4 |D3/2E/ FF|G2 A2|GF/E/ FE|D4 ||

